fs/folder_add_48_regular.svg

<svg viewBox="0 0 48 48" fill="none" xmlns="http://www.w3.org/2000/svg" height="1em" width="1em">
  <path d="M17.0607 9C17.8933 9 18.7 9.27703 19.3552 9.78393L19.5301 9.92784L22.1162 12.1907C22.3061 12.3569 22.5409 12.4609 22.7891 12.4909L22.9393 12.5H40.25C42.2543 12.5 43.8913 14.0724 43.9948 16.0508L44 16.25L44.0009 24.0564C43.2472 23.3816 42.4076 22.8008 41.5007 22.3322L41.5 16.25C41.5 15.6028 41.0081 15.0705 40.3778 15.0065L40.25 15L22.8474 14.9989L20.7205 17.6147C20.0559 18.4327 19.0803 18.9305 18.035 18.9933L17.8101 19L6.5 18.999V35.25C6.5 35.8972 6.99187 36.4295 7.62219 36.4935L7.75 36.5L24.5186 36.5005C24.7868 37.3812 25.1535 38.219 25.606 39.0011L7.75 39C5.74574 39 4.10873 37.4276 4.0052 35.4492L4 35.25V12.75C4 10.7457 5.57236 9.10873 7.55084 9.0052L7.75 9H17.0607ZM17.0607 11.5H7.75C7.10279 11.5 6.57047 11.9919 6.50645 12.6222L6.5 12.75V16.499L17.8101 16.5C18.1394 16.5 18.4534 16.3701 18.6858 16.142L18.7802 16.0382L20.415 14.025L17.8838 11.8093C17.6939 11.6431 17.4591 11.5391 17.2109 11.5091L17.0607 11.5ZM36 23C41.5228 23 46 27.4772 46 33C46 38.5228 41.5228 43 36 43C30.4772 43 26 38.5228 26 33C26 27.4772 30.4772 23 36 23ZM36 27C35.4872 27 35.0645 27.386 35.0067 27.8834L35 28V32H31C30.4872 32 30.0645 32.386 30.0067 32.8834L30 33C30 33.5128 30.386 33.9355 30.8834 33.9933L31 34H35V38C35 38.5128 35.386 38.9355 35.8834 38.9933L36 39C36.5128 39 36.9355 38.614 36.9933 38.1166L37 38V34H41C41.5128 34 41.9355 33.614 41.9933 33.1166L42 33C42 32.4872 41.614 32.0645 41.1166 32.0067L41 32H37V28C37 27.4872 36.614 27.0645 36.1166 27.0067L36 27Z" fill="#212121"/>
</svg>

<svg viewBox="0 0 48 48" fill="none" xmlns="http://www.w3.org/2000/svg" height="1em" width="1em">
  <path d="M17.06 9c.833 0 1.64.277 2.295.784l.175.144 2.586 2.263c.19.166.425.27.673.3l.15.009H40.25a3.75 3.75 0 0 1 3.745 3.55l.005.2v7.806a12.024 12.024 0 0 0-2.5-1.724V16.25a1.25 1.25 0 0 0-1.122-1.243L40.25 15l-17.403-.001-2.127 2.616a3.75 3.75 0 0 1-2.685 1.378L17.81 19 6.5 18.999V35.25c0 .647.492 1.18 1.122 1.243l.128.007h16.769c.268.881.635 1.719 1.087 2.501L7.75 39a3.75 3.75 0 0 1-3.745-3.55L4 35.25v-22.5a3.75 3.75 0 0 1 3.55-3.745L7.75 9h9.31Zm0 2.5H7.75a1.25 1.25 0 0 0-1.244 1.122l-.006.128v3.749l11.31.001c.33 0 .643-.13.876-.358l.094-.104 1.635-2.013-2.531-2.216a1.25 1.25 0 0 0-.673-.3l-.15-.009ZM36 23c5.523 0 10 4.477 10 10s-4.477 10-10 10-10-4.477-10-10 4.477-10 10-10Zm0 4a1 1 0 0 0-.993.883L35 28v4h-4a1 1 0 0 0-.993.883L30 33a1 1 0 0 0 .883.993L31 34h4v4a1 1 0 0 0 .883.993L36 39a1 1 0 0 0 .993-.883L37 38v-4h4a1 1 0 0 0 .993-.883L42 33a1 1 0 0 0-.883-.993L41 32h-4v-4a1 1 0 0 0-.883-.993L36 27Z" fill="#212121"/>
</svg>
